X: 199
T:Domine quis habitabit
N: Derived from Jos1611-Domine_quis_habitabit.krn
C: Josquin des Prez
%%abc-version 2.0
%%abcx-abcm2ps-target-version 5.9.1 (29 Sep 2008)
%%abc-creator hum2abc beta
%%abcx-conversion-date 2019/02/12 16:15:47
%%abc-edited-by Jesse Rodin
%%abc-edited-by Jesse Rodin 8/24/2013
%%abcx-initial-encoding-date 2013/08/24/
%%humdrum-veritas 4200849277
%%humdrum-veritas-data 3124360619
%%linebreak <none>
%%barnumbers 0
L: 1/4
M: 3/1
Q: 1/2=120
%%staves [1 2 3 4]
V: 1 clef=treble
V: 2 clef=treble-8
V: 3 clef=treble-8
V: 4 clef=bass
K: C
[V:1] G6G2G4 | 
[V:2] z4z4c4- | 
[V:3] z12 | 
[V:4] z12 | 
[V:1] c4z2c2c2c2 | 
[V:2] c2c2c4f4 | 
[V:3] z12 | 
[V:4] z12 | 
[V:1] c4A4z2c2 | 
[V:2] z2f2f2f2f4 | 
[V:3] z12 | 
[V:4] z12 | 
[V:1] d2A2c4B2A2- | 
[V:2] d4z2f2g2d2 | 
[V:3] z12 | 
[V:4] z12 | 
[V:1] ABcde2c4B2 | 
[V:2] f4e2f2d4 | 
[V:3] z4z4G4- | 
[V:4] z12 | 
[V:1] c4z4z4 | 
[V:2] c8z4 | 
[V:3] G2G2G4c4 | 
[V:4] C,6C,2C,4 | 
[V:1] z12 | 
[V:2] z12 | 
[V:3] z2c2c2c2c3A | 
[V:4] F,4z2F,2F,2F,2 | 
[V:1] z12 | 
[V:2] z12 | 
[V:3] A2c2d2A2c4 | 
[V:4] F,4D,4z2F,2 | 
[V:1] z12 | 
[V:2] z12 | 
[V:3] B2A3Bcde2c2- | 
[V:4] G,2D,2F,4E,2F,2 | 
[V:1] z4c4B4- | 
[V:2] f4e6d2 | 
[V:3] c2B2c4z4 | 
[V:4] D,4C,4z4 | 
[V:1] B2A2B2c2d2B2 | 
[V:2] e2f2g2e2d2g2 | 
[V:3] z12 | 
[V:4] z12 | 
[V:1] A2c4BAG3A | 
[V:2] f2e4d2e4 | 
[V:3] z4z4c4 | 
[V:4] z4F,4E,4- | 
[V:1] Bcd2G2A2G4 | 
[V:2] z12 | 
[V:3] B6A2B2c2 | 
[V:4] E,2D,2E,2F,2G,2E,2 | 
[V:1] z12 | 
[V:2] z12 | 
[V:3] d2B2A2c4BA | 
[V:4] D,2G,2F,2E,4D,2 | 
[V:1] z4d4c4 | 
[V:2] z4z4e4 | 
[V:3] G2A4G2A4 | 
[V:4] E,2C,2B,,4A,,4 | 
[V:1] z2B2c4B2A2- | 
[V:2] d4z2c2d4 | 
[V:3] B4A4z4 | 
[V:4] z12 | 
[V:1] A2G2A2F2E4 | 
[V:2] c2B2A3Bc2G2 | 
[V:3] z4z4z2c2 | 
[V:4] z4D,4C,4 | 
[V:1] z12 | 
[V:2] d3ef4e2d2- | 
[V:3] B4z2A3GB2- | 
[V:4] z2G,2F,2D,2C,2G,2- | 
[V:1] z4z2A2B4 | 
[V:2] d2c2d4z2d2 | 
[V:3] BAG4^F2G4 | 
[V:4] G,F,E,2D,4G,,4 | 
[V:1] c4A4B4 | 
[V:2] e4f4d4 | 
[V:3] z4z4G4- | 
[V:4] z12 | 
[V:1] z12 | 
[V:2] e4z4z4 | 
[V:3] G2A4B4G2 | 
[V:4] C,4D,4E,4 | 
[V:1] z4z2d2c4 | 
[V:2] e3dc2B2A4 | 
[V:3] A2G3FG2E2F2 | 
[V:4] C,3B,,A,,2G,,2A,,2F,,2 | 
[V:1] B4A4D2G2 | 
[V:2] d4c4B3c | 
[V:3] D2G4F2G2E2 | 
[V:4] G,,4A,,4G,,4 | 
[V:1] F2E2G2A3GG2- | 
[V:2] d2c2d2e3dBc | 
[V:3] D2A2G2c3BG2 | 
[V:4] z4z2A,,2E,4 | 
[V:1] G2^F2G8 | 
[V:2] d4B8 | 
[V:3] A4G4z2D2- | 
[V:4] D,4z2G,,4G,,2 | 
[V:1] z12 | 
[V:2] z4z4z2c2- | 
[V:3] D2D2F3GA4 | 
[V:4] B,,3C,D,4z4 | 
[V:1] z2G4G2B3c | 
[V:2] c2c2e3fg4 | 
[V:3] z12 | 
[V:4] z12 | 
[V:1] d4z2d4c2 | 
[V:2] z2g4f2g2e2 | 
[V:3] z12 | 
[V:4] z12 | 
[V:1] d2B2A4z4 | 
[V:2] d8z2g2 | 
[V:3] z4z2d4c2 | 
[V:4] z2G,4F,2G,2E,2 | 
[V:1] z2d2c2A2B4 | 
[V:2] f2d2e4d4 | 
[V:3] d2B2A4z4 | 
[V:4] D,4z4z2G,2 | 
[V:1] A4z4z4 | 
[V:2] z12 | 
[V:3] z2d2c2A2B2c2- | 
[V:4] F,2D,2E,2F,2G,2E,2 | 
[V:1] z4G4F4 | 
[V:2] f4e4d4 | 
[V:3] c2B2c4z4 | 
[V:4] D,4C,4z4 | 
[V:1] E4D3EFGAF | 
[V:2] c4z4z4 | 
[V:3] A4B4A2d2- | 
[V:4] z4z2G,2F,4 | 
[V:1] G4z2A2B4 | 
[V:2] z2g4f2g4 | 
[V:3] d2c2d8 | 
[V:4] E,4D,4G,4 | 
[V:1] G2A3BcAB2A2- | 
[V:2] e2f3e/d/c2g2c2 | 
[V:3] c4z2e2e2e2 | 
[V:4] C,2F,3G,A,2G,2C2 | 
[V:1] A2G2A4z2A2 | 
[V:2] z4z2e2f4 | 
[V:3] d2d4c2d2d2 | 
[V:4] B,4A,4D,4 | 
[V:1] B4c4A4 | 
[V:2] g4e4f2f2 | 
[V:3] G4z4d4 | 
[V:4] z4A,4D,2D,2 | 
[V:1] B6B2c4 | 
[V:2] g8e4 | 
[V:3] d2d2d4c4 | 
[V:4] G,4G,2G,2A,4 | 
[V:1] A4B4c4 | 
[V:2] f4g4e4 | 
[V:3] d4d4c4 | 
[V:4] D,4G,4A,4 | 
[V:1] A4B2c4B2 | 
[V:2] f4g4a2g2 | 
[V:3] d4d2c2d4 | 
[V:4] D,4G,2E,2F,2G,2 | 
[V:1] c8z4 | 
[V:2] e2A3Bcde2c2- | 
[V:3] c4z2A2B2G2- | 
[V:4] C,2F,2F,2F,2E,4 | 
[V:1] z2f2e3d/c/B2c2 | 
[V:2] c2B2c3de4 | 
[V:3] G2F2G6A2 | 
[V:4] D,4C,4z4 | 
[V:1] d2B3AG4^F2 | 
[V:2] d4z2e4dc | 
[V:3] B2G2B2c2A4 | 
[V:4] z12 | 
[V:1] G4z4z4 | 
[V:2] d2B2e3dcBA2 | 
[V:3] G4z2G2G2F2 | 
[V:4] z2G,,2C,6D,2 | 
[V:1] z4z2G2G2G2 | 
[V:2] G2B3cd2e4- | 
[V:3] G3AB3A/B/c4 | 
[V:4] E,3F,G,4C,4 | 
[V:1] A2F2E4z2D2 | 
[V:2] e2dcB2c4B2 | 
[V:3] A4G8 | 
[V:4] z2D,2E,2C,2G,4 | 
[V:1] E4F2G2E3F | 
[V:2] c4z4z4 | 
[V:3] z2G2A2B2c2A2 | 
[V:4] C,4z4z4 | 
[V:1] G2E2F2G2A4- | 
[V:2] z4z2c2c2c2 | 
[V:3] B2c2d2e2A4- | 
[V:4] z4z4z2F,2 | 
[V:1] A4z4z4 | 
[V:2] c3cA2c2d2c2 | 
[V:3] A12 | 
[V:4] F,2F,2F,3F,D,2F,2 | 
[V:1] z12 | 
[V:2] B3cB2A4^G2 | 
[V:3] z4z4z2d2- | 
[V:4] G,2E,3D,C,D,B,,4 | 
[V:1] z2E2F4G4 | 
[V:2] A4z2A2B4 | 
[V:3] d2c2d6d2 | 
[V:4] A,,4D,4G,,4 | 
[V:1] E3FG2D2F3G | 
[V:2] A4G4d4 | 
[V:3] c4B4A3G | 
[V:4] z4z4D,4- | 
[V:1] ABc2d4c2A2- | 
[V:2] z2A4G2A2c2 | 
[V:3] F2E4D2E4 | 
[V:4] D,2C,2B,,4A,,4 | 
[V:1] A2^G2A4z4 | 
[V:2] B4A4z4 | 
[V:3] z2E2F2E2D2F2 | 
[V:4] z4z2A,,2B,,2A,,2 | 
[V:1] z4z4z2A2 | 
[V:2] z12 | 
[V:3] G2D2E2G4^F2 | 
[V:4] G,,2B,,2C,2G,,2A,,4 | 
[V:1] B3AG2B2c2G2 | 
[V:2] z2d2e2d2c2e2 | 
[V:3] G4z4z4 | 
[V:4] G,,4z4z4 | 
[V:1] A2c4B2c4 | 
[V:2] f2c2d4c4 | 
[V:3] z4z2G2A2G2 | 
[V:4] z4z4z2C,2 | 
[V:1] z4z4z2E2 | 
[V:2] z4z2dc2Bc2 | 
[V:3] F2E2DG2FG4 | 
[V:4] D,2C,2B,,2A,,2G,,2C,2 | 
[V:1] F2G2E2A2G4 | 
[V:2] A2G2A2e4d2 | 
[V:3] z2B2c6B2 | 
[V:4] D,2E,2A,,4z4 | 
[V:1] z12 | 
[V:2] c6B2A2d2- | 
[V:3] A4G3FEDG2- | 
[V:4] F,4E,3D,C,B,,A,,G,, | 
[V:1] z4z2D2E4- | 
[V:2] dcc4B2c4 | 
[V:3] G2F2G8 | 
[V:4] A,,4F,,4C,4 | 
[V:1] E2F2G2D2A4 | 
[V:2] z2c2d2B2A2c2- | 
[V:3] A4G4z4 | 
[V:4] z4z4F,4 | 
[V:1] z12 | 
[V:2] c2B2A2d3cc2- | 
[V:3] G3FEDG4F2 | 
[V:4] E,3D,C,B,,A,,G,,A,,4 | 
[V:1] z2D2E6F2 | 
[V:2] c2B2c4z2c2 | 
[V:3] G8A4 | 
[V:4] G,,4C,4z4 | 
[V:1] G2D2E2G4^F2 | 
[V:2] d2B2c2d2e2d2 | 
[V:3] B2G6A4 | 
[V:4] z2G,,2C,2B,,2C,2D,2 | 
[V:1] G12 ||  
[V:2] d12 ||  
[V:3] G12 ||  
[V:4] G,,12 ||  
[V:1]  [K:C] [K:clef=treble][M:2/1]G8 | 
[V:2]  [K:C] [K:clef=treble-8][M:2/1]d8 | 
[V:3]  [K:C] [K:clef=treble-8][M:2/1]G8 | 
[V:4]  [K:C] [K:clef=bass][M:2/1]z8 | 
[V:1] G6G2 | 
[V:2] d6d2 | 
[V:3] B6B2 | 
[V:4] G,8 | 
[V:1] G8 | 
[V:2] d4d4 | 
[V:3] B4B4 | 
[V:4] G,6G,2 | 
[V:1] G4G4- | 
[V:2] e3d/c/B2e2 | 
[V:3] c3B/A/G2c2- | 
[V:4] C,3D,E,2C,2 | 
[V:1] G4G4 | 
[V:2] d4z2d2 | 
[V:3] c2BAB4 | 
[V:4] G,4G,4 | 
[V:1] G8 | 
[V:2] e3dcBe2- | 
[V:3] c4z2c2- | 
[V:4] C,4z4 | 
[V:1] z2G2G2G2 | 
[V:2] e2dcd2e2 | 
[V:3] c2BAB2c2 | 
[V:4] z8 | 
[V:1] A2c4B2 | 
[V:2] c4d4 | 
[V:3] A4G4 | 
[V:4] z8 | 
[V:1] c4z4 | 
[V:2] c4z4 | 
[V:3] A3Bc3d | 
[V:4] z2F,4E,D, | 
[V:1] z8 | 
[V:2] z4f4 | 
[V:3] G2c4B2 | 
[V:4] E,2F,2D,4 | 
[V:1] G4A4 | 
[V:2] e4c3d | 
[V:3] c4z4 | 
[V:4] C,4F,4 | 
[V:1] G4E2A2- | 
[V:2] e4c2e2- | 
[V:3] B4A2c2- | 
[V:4] E,4A,,4 | 
[V:1] A2G4^F2 | 
[V:2] edBcd4 | 
[V:3] cBG2A4 | 
[V:4] E,4D,4 | 
[V:1] G8 | 
[V:2] B8 | 
[V:3] G4z2G2 | 
[V:4] z2G,,2G,,2G,,2 | 
[V:1] z8 | 
[V:2] z8 | 
[V:3] G2G2c4 | 
[V:4] C,4A,,4 | 
[V:1] z4z2D2 | 
[V:2] z8 | 
[V:3] A4d2d2 | 
[V:4] D,2D,2B,,4 | 
[V:1] D2D2G3G | 
[V:2] z2G2G2G2 | 
[V:3] B8 | 
[V:4] z8 | 
[V:1] E2E2A2A2 | 
[V:2] c4A4 | 
[V:3] z8 | 
[V:4] z8 | 
[V:1] F2F2D4 | 
[V:2] d2d2B4 | 
[V:3] z4G4 | 
[V:4] z8 | 
[V:1] z8 | 
[V:2] z8 | 
[V:3] G2G2c4 | 
[V:4] C,4C,2C,2 | 
[V:1] z4z2D2 | 
[V:2] z8 | 
[V:3] A4d2d2 | 
[V:4] F,4D,4 | 
[V:1] D2D2G4 | 
[V:2] z2G2G2G2 | 
[V:3] B8 | 
[V:4] G,2G,2E,4 | 
[V:1] E4A2A2 | 
[V:2] c4A4 | 
[V:3] z8 | 
[V:4] A,4F,2F,2 | 
[V:1] F4z2D2 | 
[V:2] d2d2B3c | 
[V:3] z4G4 | 
[V:4] D,4z4 | 
[V:1] F2G2A4- | 
[V:2] d2e2f3e/d/ | 
[V:3] F2E2D3E | 
[V:4] z8 | 
[V:1] A2z2z4 | 
[V:2] c2e3dc2- | 
[V:3] F2G4F2 | 
[V:4] z2C,3B,,A,,2 | 
[V:1] z2D2E4- | 
[V:2] c2B2c4 | 
[V:3] G4z2G2 | 
[V:4] G,,4C,4 | 
[V:1] E2F2G4 | 
[V:2] z2c2d4 | 
[V:3] A4G4 | 
[V:4] z8 | 
[V:1] E4z4 | 
[V:2] c4z2d2 | 
[V:3] z2A4G2 | 
[V:4] C,6B,,2 | 
[V:1] z2E2F4 | 
[V:2] d2c2d4- | 
[V:3] A8 | 
[V:4] A,,4D,3C, | 
[V:1] G2A2D2d2 | 
[V:2] d2c2B4 | 
[V:3] G2E2G4 | 
[V:4] B,,2A,,2G,,4 | 
[V:1] c4B2e2- | 
[V:2] z2A2d2cd | 
[V:3] E4z2G2- | 
[V:4] A,,4G,,2C,2- | 
[V:1] edcBc2F2 | 
[V:2] efg2e2d2 | 
[V:3] G2G2A4 | 
[V:4] C,D,E,2A,,2D,2 | 
[V:1] G2D2E4- | 
[V:2] B4z2A2- | 
[V:3] G4c4 | 
[V:4] G,,4z4 | 
[V:1] E2F2G2A2- | 
[V:2] A2A2GEe2- | 
[V:3] z2c2B2c2- | 
[V:4] z4z2A,,2 | 
[V:1] AGG4^F2 | 
[V:2] edBcd4 | 
[V:3] cBG2A4 | 
[V:4] E,4D,4 | 
[V:1] G4z2D2- | 
[V:2] B8 | 
[V:3] G8- | 
[V:4] z2G,,4G,,2 | 
[V:1] D2D2E4 | 
[V:2] z2B2c4 | 
[V:3] G4z2A2- | 
[V:4] G,,2G,,2C,2A,,2- | 
[V:1] E2E2F4 | 
[V:2] c2c2d4 | 
[V:3] A2A2A2A2 | 
[V:4] A,,B,,C,A,,D,4 | 
[V:1] D4E4- | 
[V:2] B4c4 | 
[V:3] G4G4 | 
[V:4] G,,4C,4 | 
[V:1] E4F4 | 
[V:2] c4d4 | 
[V:3] A4A4 | 
[V:4] A,,4D,4 | 
[V:1] D4E4 | 
[V:2] B4A4 | 
[V:3] G2G2c4 | 
[V:4] G,,4z4 | 
[V:1] F4D4 | 
[V:2] d4B4 | 
[V:3] A4G4- | 
[V:4] D,4G,,4 | 
[V:1] E2D4C2 | 
[V:2] c2A3GG2- | 
[V:3] G2F2E4 | 
[V:4] C,2D,2E,4 | 
[V:1] D4z2D2 | 
[V:2] G2^F2G4 | 
[V:3] z2A2B4 | 
[V:4] D,4G,,4 | 
[V:1] E4F4 | 
[V:2] z8 | 
[V:3] c4d4 | 
[V:4] z4D,4 | 
[V:1] G4z4 | 
[V:2] G4A4 | 
[V:3] z8 | 
[V:4] E,4F,4 | 
[V:1] z2G4G2 | 
[V:2] B4c4 | 
[V:3] d4e4 | 
[V:4] G,4C,3C, | 
[V:1] G2G2G4 | 
[V:2] B3BG2G2 | 
[V:3] d2d2c4 | 
[V:4] G,2G,2C,4 | 
[V:1] F4E4- | 
[V:2] d4B4 | 
[V:3] A4z2G2 | 
[V:4] D,4E,4 | 
[V:1] E2F2G2A2 | 
[V:2] c2d2e4 | 
[V:3] A4c3B | 
[V:4] A,,2D,2C,2A,,2 | 
[V:1] F2G4^F2 | 
[V:2] d2c2d4 | 
[V:3] A2G2A4 | 
[V:4] D,2E,2D,4 | 
[V:1] G8 | 
[V:2] B8 | 
[V:3] G4z2D2 | 
[V:4] z2G,,2G,,2G,,2 | 
[V:1] z2D2F3G | 
[V:2] A4z2d2 | 
[V:3] D2D2A4- | 
[V:4] D,8 | 
[V:1] A4z4 | 
[V:2] f3ga4 | 
[V:3] A4z2A2 | 
[V:4] z2D,2F,3G, | 
[V:1] z2c2B2B2 | 
[V:2] z4z2g2 | 
[V:3] c3de4 | 
[V:4] A,4z4 | 
[V:1] A2A2G4 | 
[V:2] f2f2e2e2 | 
[V:3] z4c4 | 
[V:4] z8 | 
[V:1] z8 | 
[V:2] d4z2d2- | 
[V:3] B2B2A2A2 | 
[V:4] G,4F,2F,2 | 
[V:1] z2E2F4 | 
[V:2] d2c2d4 | 
[V:3] G4A4 | 
[V:4] E,2E,2D,4 | 
[V:1] G2A4G2- | 
[V:2] B2c3BAG | 
[V:3] G2F2E4 | 
[V:4] z8 | 
[V:1] G2^F2G4 | 
[V:2] A4G4 | 
[V:3] D4z4 | 
[V:4] z4z2G,2 | 
[V:1] z8 | 
[V:2] z2g2g2g2 | 
[V:3] z8 | 
[V:4] G,2G,2E,4 | 
[V:1] z8 | 
[V:2] e4c4 | 
[V:3] z8 | 
[V:4] C,4z2F,2 | 
[V:1] z8 | 
[V:2] z2f2e2d2- | 
[V:3] z8 | 
[V:4] E,2D,2A,G,F,G, | 
[V:1] z8 | 
[V:2] d2^c2d4 | 
[V:3] z4z2d2 | 
[V:4] E,4D,4- | 
[V:1] z2d2d2d2 | 
[V:2] z8 | 
[V:3] d2d2B4 | 
[V:4] D,4z4 | 
[V:1] B4G4 | 
[V:2] z8 | 
[V:3] G4z2c2 | 
[V:4] z8 | 
[V:1] z2c2B2A2- | 
[V:2] z8 | 
[V:3] B2A2edcd | 
[V:4] z8 | 
[V:1] A2^G2A4 | 
[V:2] d4e4 | 
[V:3] B4A4- | 
[V:4] z8 | 
[V:1] z8 | 
[V:2] f4g4 | 
[V:3] A4z4 | 
[V:4] D,4E,4 | 
[V:1] A4B4 | 
[V:2] z4g4 | 
[V:3] z8 | 
[V:4] F,4G,4 | 
[V:1] c4d4 | 
[V:2] e4d4 | 
[V:3] A4B4 | 
[V:4] z8 | 
[V:1] z8 | 
[V:2] g4f4 | 
[V:3] c4d4 | 
[V:4] E,4D,4 | 
[V:1] z8 | 
[V:2] e2d4^c2 | 
[V:3] z2A2G3A | 
[V:4] C,2D,2E,4 | 
[V:1] z2d2c2B2 | 
[V:2] d4e4- | 
[V:3] B2A4G2 | 
[V:4] D,4z4 | 
[V:1] A3GF4 | 
[V:2] e4d4 | 
[V:3] A8- | 
[V:4] z4D,4 | 
[V:1] E2D4^C2 | 
[V:2] z2d2e4 | 
[V:3] A8 | 
[V:4] C,2D,2A,,4 | 
[V:1] D4z2G2 | 
[V:2] f4d4 | 
[V:3] z2A2B4 | 
[V:4] D,4G,,4 | 
[V:1] G2G2A2c2- | 
[V:2] e6dc | 
[V:3] c4A4 | 
[V:4] z8 | 
[V:1] c2B2c2A2 | 
[V:2] d4e2d2- | 
[V:3] G6F2 | 
[V:4] z2G,,2C,2D,2 | 
[V:1] B4z2c2 | 
[V:2] dGd2e4 | 
[V:3] D2G2G4- | 
[V:4] G,,4C,4 | 
[V:1] d2B2A2c2 | 
[V:2] d4z2f2 | 
[V:3] G4z4 | 
[V:4] z8 | 
[V:1] B2G2A4 | 
[V:2] g2e2d2f2 | 
[V:3] z8 | 
[V:4] z8 | 
[V:1] G2c4B2 | 
[V:2] e2c2d4 | 
[V:3] z4z2G2 | 
[V:4] z8 | 
[V:1] c2A2G2E2 | 
[V:2] c8 | 
[V:3] A2F2E2G2 | 
[V:4] z4z2C,2 | 
[V:1] D2d2c4 | 
[V:2] z2G2A2G2 | 
[V:3] F2D2E4 | 
[V:4] D,2B,,2A,,2C,2 | 
[V:1] z4z2c2 | 
[V:2] B4z4 | 
[V:3] D2G4^F2 | 
[V:4] B,,2G,,2A,,4 | 
[V:1] B4e3d | 
[V:2] d4c3d | 
[V:3] G8 | 
[V:4] G,,4C,4 | 
[V:1] c2B2c2A2- | 
[V:2] efg2e2f2- | 
[V:3] z2G2A2D2- | 
[V:4] z8 | 
[V:1] AGF2E2F2 | 
[V:2] fed2c2d2 | 
[V:3] DEFGA2D2 | 
[V:4] z8 | 
[V:1] D2G3FE2 | 
[V:2] B2e3dc2 | 
[V:3] G4z4 | 
[V:4] z2C,3D,E,F, | 
[V:1] D2E2C2F2 | 
[V:2] B2c2A3B | 
[V:3] z8 | 
[V:4] G,2C,2F,2D,2 | 
[V:1] E2G2A2B2 | 
[V:2] c3BAGG2- | 
[V:3] G3FE2D2- | 
[V:4] C,6B,,2 | 
[V:1] c4B2d2- | 
[V:2] G2^F2G2B2- | 
[V:3] D2C2D2G2- | 
[V:4] A,,4G,,4 | 
[V:1] dcB2A2B2 | 
[V:2] Bcdef2g2 | 
[V:3] GABcd2G2 | 
[V:4] z8 | 
[V:1] G2A3GF2 | 
[V:2] e2f3ed2 | 
[V:3] c2A2z4 | 
[V:4] z2D,3E,F,G, | 
[V:1] E2F2D2G2- | 
[V:2] c2d2B2e2- | 
[V:3] z8 | 
[V:4] A,2D,2G,2C,2- | 
[V:1] GFE2D2E2 | 
[V:2] edc2B2c2 | 
[V:3] z8 | 
[V:4] C,D,E,F,G,2C,2 | 
[V:1] C4F4 | 
[V:2] A6B2 | 
[V:3] z4F4 | 
[V:4] F,4D,4 | 
[V:1] E4z2G2 | 
[V:2] c3BAGG2 | 
[V:3] G3FE2D2 | 
[V:4] C,6B,,2 | 
[V:1] A2B2c4 | 
[V:2] F2G4^F2 | 
[V:3] C2D4C2 | 
[V:4] A,,2G,,2A,,4 | 
[V:1] B8 |]  
[V:2] G8 |]  
[V:3] D8 |]  
[V:4] G,,8 |]  



